X:1
T: Diane's Dilemma
C:
R:Strathspey
Q: 128
K:G
M:4/4
L:1/16
|:D4|G4 B3d c3A FA3|G4 B3d g4 g4|e3g f3e d3B G3B|A3g f3e ((3d2e2d2) ((3c2B2A2) |
G4 B3d c3A FA3|G4 B3d g4 g4|e3g f3e d3B G3B|A3c B3A G8|
F3G A3F GB3 D4|((3c2B2A2) ((3B2A2G2) A4 D4|F3G A3F GB3 D4|E3G c3e d4 D4|
G4 B3d c3A FA3|G4 B3d g4 g4|e3g f3e d3B G3B|A3c B3A G4:|
